X:1520
T:Black Nag
R:Contredanse
C:Traditionnel
N:Chapelloise
Z:J.M. HENRY
M:6/8
L:1/8
K:G
E|: "Am"AGA "G" BAB| "C"cBc "G"Bcd| "C"edc "G"BAB|1 "Am"A3 A2 E :|2"Am"A
3 A2  A||!
"Em"BGE BGE|BGE BGE| "Am"ecA ecA| ecA ecA|!
 "Em"BGE BGE| BGE "G"Bcd| "C"edc "G"BAB| "Am"A3 A2||!


